src/lib/packages/icons/src/assets/filled/shopping-cart-check.svg

<svg width="24" height="24" viewBox="0 0 24 24" fill="none" xmlns="http://www.w3.org/2000/svg">
<path d="M9.021 22.25C8.332 22.25 7.76599 21.69 7.76599 21C7.76599 20.31 8.32099 19.75 9.01099 19.75H9.021C9.711 19.75 10.271 20.31 10.271 21C10.271 21.69 9.711 22.25 9.021 22.25ZM18.271 21C18.271 20.31 17.711 19.75 17.021 19.75H17.011C16.321 19.75 15.766 20.31 15.766 21C15.766 21.69 16.331 22.25 17.021 22.25C17.711 22.25 18.271 21.69 18.271 21ZM20.96 8.36L19.95 14.54C19.69 15.96 19.1 17 17 17H8.72998C7.72998 17 6.89 16.27 6.75 15.28L5.24902 4.832C5.15902 4.202 4.63901 3.75 4.01001 3.75H3.75C3.336 3.75 3 3.414 3 3C3 2.586 3.336 2.25 3.75 2.25H4.01001C5.39301 2.25 6.53803 3.244 6.73303 4.614L6.94202 6H19C20.24 6 21.19 7.13 20.96 8.36ZM15.507 9.636C15.214 9.343 14.739 9.343 14.446 9.636L12.309 11.772L11.506 10.969C11.213 10.676 10.7379 10.676 10.4449 10.969C10.1519 11.262 10.1519 11.737 10.4449 12.03L11.778 13.363C11.919 13.504 12.109 13.583 12.308 13.583C12.507 13.583 12.698 13.504 12.838 13.363L15.505 10.696C15.8 10.404 15.8 9.929 15.507 9.636Z" fill="currentColor"/>
</svg>

<svg xmlns="http://www.w3.org/2000/svg" width="24" height="24" fill="none"><path fill="currentColor" d="M9.021 22.25c-.689 0-1.255-.56-1.255-1.25s.555-1.25 1.245-1.25h.01a1.25 1.25 0 0 1 0 2.5Zm9.25-1.25c0-.69-.56-1.25-1.25-1.25h-.01c-.69 0-1.245.56-1.245 1.25s.565 1.25 1.255 1.25 1.25-.56 1.25-1.25ZM20.96 8.36l-1.01 6.18C19.69 15.96 19.1 17 17 17H8.73c-1 0-1.84-.73-1.98-1.72L5.249 4.832A1.243 1.243 0 0 0 4.01 3.75h-.26a.75.75 0 0 1 0-1.5h.26a2.73 2.73 0 0 1 2.723 2.364L6.942 6H19c1.24 0 2.19 1.13 1.96 2.36Zm-5.453 1.276a.75.75 0 0 0-1.061 0l-2.137 2.136-.803-.803a.75.75 0 0 0-1.061 1.061l1.333 1.333a.749.749 0 0 0 1.06 0l2.667-2.667a.747.747 0 0 0 .002-1.06Z"/></svg>
